X:1
Q:1/4=53
L:1/8
M:1/16
K:C clef=G2
V:1
%%MIDI program 0
^A,15/32|[^A,-^D-]/2|[^A,-^D-]/2|[^A,-^D-]/2|
[^A,-^D-]/2|[^A,-^D-]/2|[^A,^D]3/8z/8|[^D^G]15/32|
[^DG]15/32|[^D-^A-]/2|[^D-^A-]/2|[^D-^A-]/2|
[^D-^A-]/2|[^D-^A-]/2|[^D^A]3/8z/8|[D^G]15/32|
[^DG]15/32|[D-^A-]/2|[D-^A-]/2|[D-^A-]/2|
[D-^A-]/2|[D-^A-]/2|[D^A]3/8z/8|[D^G]15/32|
[^DG]15/32|[^D-G-]/2|[^D-G-]/2|[^D-G-]/2|
[^D-G-]/2|[^D-G-]/2|[^DG]3/8z/8|[^DG]15/32|
[DF]15/32|[D-^G-]/2|[D-^G-]/2|[D-^G-]/2|
[D-^G-]/2|[D-^G-]/2|[D^G]3/8z/8|[^DG]15/32|
[DF]15/32|[D-F-]/2|[D-F-]/2|[D-F-]/2|
[D-F-]/2|[D-F-]/2|[DF]3/8z/8|[^D-c-]/2|
[^Dc]7/16|[^D-^A-]/2|[^D-^A-]/2|[^D-^A-]/2|
[^D-^A-]/2|[^D-^A-]/2|[^D^A]3/8z/8|[D^G]15/32|
[^A,G]15/32|[^A,-^A-]/2|[^A,-^A-]/2|[^A,-^A-]/2|
[^A,-^A-]/2|[^A,-^A-]/2|[^A,-^A-]/2|[^A,-^A-]/2|
[^A,^A]/4z/4|[^D-^d-]/2|[^D-^d-]/2|[^D-^d-]/2|
[^D-^d-]/2|[^D-^d-]/2|[^D-^d-]/2|[^D-^d-]/2|
[^D^d]/4z/4|[^D-c-]/2|[^D-c-]/2|[^D-c-]/2|
[^D-c-]/2|[^D-c-]/2|[^Dc]3/8z/8|[C-E^A]15/32|
[F-^G-C]7/16|[C-F-^G-]/2|[C-F-^G-]/2|[C-F-^G-]/2|
[C-F-^G-]/2|[C-F-^G-]/2|[CF^G]3/8z/8|[^D-c-]/2|
[^Dc]7/16|[^A,-^D-^A-]/2|[^A,-^D-^A-]/2|[^A,-^D-^A-]/2|
[^A,-^D-^A-]/2|[^A,-^D-^A-]/2|[^A,^D^A]3/8z/8|[^A,D^G]15/32|
[^A,^DG]15/32|[^A,-G-^A-]/2|[^A,-G-^A-]/2|[^A,-G-^A-]/2|
[^A,-G-^A-]/2|[^A,-G-^A-]/2|[^A,G^A]3/8z3/16|
L:1/8
M:1/16
K:C clef=F4
V:2
%%MIDI program 0
^A,,15/32|[^D,-G,-]/2|[^D,-G,-]/2|[^D,-G,-]/2|
[^D,-G,-]/2|[^D,-G,-]/2|[^D,G,]3/8z/8|[^D,C]15/32|
[^D,^A,]15/32|[G,-^A,-]/2|[G,-^A,-]/2|[G,-^A,-]/2|
[G,-^A,-]/2|[G,-^A,-]/2|[G,^A,]3/8z/8|[F,^A,]15/32|
[^D,^A,]15/32|[^A,,-^A,-]/2|[^A,,-^A,-]/2|[^A,,-^A,-]/2|
[^A,,-^A,-]/2|[^A,,-^A,-]/2|[^A,,^A,]3/8z/8|[^A,,-^A,-]/2|
[^A,,^A,]7/16|[^D,-^A,-]/2|[^D,-^A,-]/2|[^D,-^A,-]/2|
[^D,-^A,-]/2|[^D,-^A,-]/2|[^D,^A,]3/8z/8|[^D,^A,]15/32|
[^A,,^A,]15/32|[F,-^A,-]/2|[F,-^A,-]/2|[F,-^A,-]/2|
[F,-^A,-]/2|[F,-^A,-]/2|[F,^A,]3/8z/8|[^D,^A,]15/32|
[F,^A,]15/32|[^A,,-^A,-]/2|[^A,,-^A,-]/2|[^A,,-^A,-]/2|
[^A,,-^A,-]/2|[^A,,-^A,-]/2|[^A,,^A,]3/8z/8|[^G,,-^G,-]/2|
[^G,,^G,]7/16|[G,,-G,-]/2|[G,,-G,-]/2|[G,,-G,-]/2|
[G,,-G,-]/2|[G,,-G,-]/2|[G,,G,]3/8z/8|[^A,,F,]15/32|
[^D,G,]15/32|[^A,,-F,-]/2|[^A,,-F,-]/2|[^A,,-F,-]/2|
[^A,,-F,-]/2|[^A,,-F,-]/2|[^A,,-F,-]/2|[^A,,-F,-]/2|
[^A,,F,]/4z/4|[G,,-G,-]/2|[G,,-G,-]/2|[G,,-G,-]/2|
[G,,-G,-]/2|[G,,-G,-]/2|[G,,-G,-]/2|[G,,-G,-]/2|
[G,,G,]/4z/4|[^G,,-^G,-]/2|[^G,,-^G,-]/2|[^G,,-^G,-]/2|
[^G,,-^G,-]/2|[^G,,-^G,-]/2|[^G,,^G,]3/8z/8|C,/2-|
C,7/16|F,,/2-|F,,/2-|F,,/2-|
F,,/2-|F,,/2-|F,,3/8z/8|[^G,,-^G,-]/2|
[^G,,^G,]7/16|G,,/2-|G,,/2-|G,,/2-|
G,,/2-|G,,/2-|G,,3/8z/8|^A,,/2-|
^A,,7/16|^D,/2-|^D,/2-|^D,/2-|
^D,/2-|^D,/2-|^D,3/8z3/16|
Q:1/4=104
Q:1/4=53
L:1/8
M:1/16
K:C clef=G2
V:1
%%MIDI program 0
[^DG]15/32|[DF]15/32|[D-^G-]/2|[D-^G-]/2|
[D-^G-]/2|[D-^G-]/2|[D-^G-]/2|[D^G]3/8z/8|
[^DG]15/32|[DF]15/32|[D-F-]/2|[D-F-]/2|
[D-F-]/2|[D-F-]/2|[D-F-]/2|[DF]3/8z/8|
[^D-c-]/2|[^Dc]7/16|[^D-^A-]/2|[^D-^A-]/2|
[^D-^A-]/2|[^D-^A-]/2|[^D-^A-]/2|[^D^A]3/8z/8|
[^A,-^D-G-]/2|[^A,^DG]7/16|
L:1/8
M:1/16
K:C clef=F4
V:2
%%MIDI program 0
[^D,^A,]15/32|[^A,,^A,]15/32|[F,-^A,-]/2|[F,-^A,-]/2|
[F,-^A,-]/2|[F,-^A,-]/2|[F,-^A,-]/2|[F,^A,]3/8z/8|
[^D,^A,]15/32|[F,^A,]15/32|[^A,,-^A,-]/2|[^A,,-^A,-]/2|
[^A,,-^A,-]/2|[^A,,-^A,-]/2|[^A,,-^A,-]/2|[^A,,^A,]3/8z/8|
[^G,,-^G,-]/2|[^G,,^G,]7/16|[^A,,-G,-]/2|[^A,,-G,-]/2|
[^A,,-G,-]/2|[^A,,-G,-]/2|[^A,,-G,-]/2|[^A,,G,]3/8z/8|
^A,,/2-|^A,,7/16|
Q:1/4=26
L:1/8
M:1/16
K:C clef=F4
V:1
%%MIDI program 0
[G,-^A,-^D-]/2|[G,-^A,-^D-]/2|[G,-^A,-^D-]/2|[G,-^A,-^D-]/2|
[G,-^A,-^D-]/2|[G,-^A,-^D-]/2|[G,-^A,-^D-]/2|[G,^A,^D]/4(5:4z/4
L:1/8
M:1/16
K:C clef=F4
V:2
%%MIDI program 0
[^D,,-^D,-]/2|[^D,,-^D,-]/2|[^D,,-^D,-]/2|[^D,,-^D,-]/2|
[^D,,-^D,-]/2|[^D,,-^D,-]/2|[^D,,-^D,-]/2|[^D,,^D,]/4(5:4z/4
Q:1/4=53
L:1/8
M:1/16
K:C clef=G2
V:1
%%MIDI program 0
z/2|z/2|z/2|z/2|
[^A,-^D-]31/64|(3:2[^A,^D]/4[^D-G-]3/8|[^DG]/2[G-^A-]3/16|[G^A]15/32|
[^D-G-^d-]31/64|[^D-G-^d-]/2|[^D-G-^d-]/2|[^D-G-^d-]/2|
[^D-G-^d-]/2|[^D-G-^d-]/2|[^D-G-^d-]/2|(5:3[^DG^d]/2z/4|
[^D-^G-c-]31/64|[^D-^G-c-]/2|[^D-^G-c-]/2|(5:4[^D^Gc]/2|
[C-^D-^G-]31/64|[C-^D-^G-]/2|[C^D^G]7/16|[^D^Gc]15/32|
[^D-G-^A-]31/64|[^D-G-^A-]/2|[^D-G-^A-]/2|[^D-G-^A-]/2|
[^D-G-^A-]/2|[^D-G-^A-]/2|[^D-G-^A-]/2|[^D-G-^A-]/2|
[^D-G-^A-]/2|[^D-G-^A-]/2|[^D-G-^A-]/2|(5:4[^DG^A]/4z/2|
[C-G-^A-]31/64|[CG^A]/4[C-F-^G-]3/8|(3:2[CF^G]/2[^D-^G-c-]3/16|[^D^Gc]15/32|
[^D-G-^A-]31/64|[^D-G-^A-]/2|[^D-G-^A-]/2|[^D-G-^A-]/2|
[^D-G-^A-]/2|[^DG^A]3/8z/8|[^G,-^A,-F-]31/64|[^G,^A,F]7/16|
[^A,-D-^G-]31/64|[^A,-D-^G-]/2|[^A,-D-^G-]/2|[^A,-D-^G-]/2|
[^A,-D-^G-]/2|[^A,D^G]3/8z/8|[^A,-^D-G-]31/64|[^A,^DG]7/16|
L:1/8
M:1/16
K:C clef=F4
V:2
%%MIDI program 0
z/2|z/2|z/2|z/2|
[^D,-G,-]31/64|(3:2[^D,G,]/4[G,-^A,-]3/8|[G,^A,]/2[^A,-^D-]3/16|[^A,^D]15/32|
C,31/64-|C,/2-|C,/2-|C,/2-|
C,/2-|C,/2-|C,/2-|(5:3C,/2z/4|
F,31/64-|F,/2-|F,/2-|(5:4F,/2|
^G,31/64-|^G,/2-|^G,7/16|^G,,15/32|
^D,31/64-|^D,/2-|^D,/2-|^D,/2-|
^D,/2-|^D,/2-|^D,/2-|^D,/2-|
^D,/2-|^D,/2-|^D,/2-|(5:4^D,/4z/2|
E,31/64-|E,/4F,3/8-|(3:2F,/2^G,,3/16-|^G,,15/32|
^A,,31/64-|^A,,/2-|^A,,/2-|^A,,/2-|
^A,,/2-|^A,,3/8z/8|D,31/64-|D,7/16|
F,31/64-|F,/2-|F,/2-|F,/2-|
F,/2-|F,3/8z/8|^A,,31/64-|^A,,7/16|
Q:1/4=26
L:1/8
M:1/16
K:C clef=F4
V:1
%%MIDI program 0
[G,-^A,-^D-]/2|[G,-^A,-^D-]/2|[G,-^A,-^D-]/2|[G,-^A,-^D-]/2|
[G,-^A,-^D-]/2|[G,-^A,-^D-]/2|[G,-^A,-^D-]/2|[G,-^A,-^D-]/2|
[G,-^A,-^D-]/2|[G,-^A,-^D-]/2|[G,-^A,-^D-]/2|[G,^A,^D]3/16(5:3z/2
L:1/8
M:1/16
K:C clef=F4
V:2
%%MIDI program 0
[^D,,-^D,-]/2|[^D,,-^D,-]/2|[^D,,-^D,-]/2|[^D,,-^D,-]/2|
[^D,,-^D,-]/2|[^D,,-^D,-]/2|[^D,,-^D,-]/2|[^D,,-^D,-]/2|
[^D,,-^D,-]/2|[^D,,-^D,-]/2|[^D,,-^D,-]/2|[^D,,^D,]3/16(5:3z/2
Q:1/4=53
L:1/8
M:1/16
K:C clef=F4
V:1
%%MIDI program 0
z/2|z/2|z/2|z/2|
[^A,-^D-]31/64|[^A,-^D-]/2|[^A,-^D-]/2|(5:4[^A,^D]/2|
[B,-F-]31/64|[B,F]7/16|[C-^D-]31/64|[C^D]7/16|
[^A,-G-]31/64|[^A,G]7/16|[B,-F-]31/64|[B,F]7/16|
[C-^D-]31/64|[C^D]7/16|C31/64-|C7/16|
^A,31/64-|^A,/2-|^A,/2-|(5:4^A,/2|
[^G,-C-]31/64|[^G,C]7/16|[G,-^A,-]31/64|[G,^A,]7/16|
[G,-^D-]31/64|[G,^D]7/16|[^G,-C-]31/64|[^G,C]7/16|
^A,31/64-|^A,7/16|G,31/64-|G,7/16|
F,31/64-|F,/2-|F,/2-|(5:4F,/2|
L:1/8
M:1/16
K:C clef=F4
V:2
%%MIDI program 0
z/2|z/2|z/2|z/2|
[^D,-G,-]31/64|[^D,-G,-]/2|[^D,-G,-]/2|(5:4[^D,G,]/2|
[D,-G,-]31/64|[D,G,]7/16|[C,-G,-]31/64|[C,G,]7/16|
[^D,-G,-]31/64|[^D,G,]7/16|[D,-G,-]31/64|[D,G,]7/16|
[C,-G,-]31/64|[C,G,]7/16|[^G,,-^G,-]31/64|[^G,,^G,]7/16|
[^D,-G,-]31/64|[^D,-G,-]/2|[^D,-G,-]/2|(5:4[^D,G,]/2|
[^G,,-^D,-]31/64|[^G,,^D,]7/16|^D,31/64-|^D,7/16|
[C,-^D,-]31/64|[C,^D,]7/16|[^G,,-^D,-]31/64|[^G,,^D,]7/16|
[G,,-^D,-]31/64|[G,,^D,]7/16|[^D,,-^D,-]31/64|[^D,,^D,]7/16|
[^A,,-D,-]31/64|[^A,,-D,-]/2|[^A,,-D,-]/2|(5:4[^A,,D,]/2|
Q:1/4=209
Q:1/4=53
L:1/8
M:1/16
K:C clef=F4
V:1
%%MIDI program 0
^A,/2-|^A,/2-|^A,7/16|^A,15/32|
L:1/8
M:1/16
K:C clef=F4
V:2
%%MIDI program 0
[^A,,-G,-]/2|[^A,,-G,-]/2|[^A,,G,]7/16|[^A,,G,]15/32|
Q:1/4=26
L:1/8
M:1/16
K:C clef=F4
V:1
%%MIDI program 0
[^G,-C-]/2|[^G,-C-]/2|[^G,-C-]/2|[^G,C]3/8
L:1/8
M:1/16
K:C clef=F4
V:2
%%MIDI program 0
[^A,,-F,-]/2|[^A,,-F,-]/2|[^A,,-F,-]/2|[^A,,F,]3/8
Q:1/4=53
Q:1/4=26
L:1/8
M:1/16
K:C clef=F4
V:1
%%MIDI program 0
[F-^G,-^A,-]/2|[F^G,^A,]7/16
L:1/8
M:1/16
K:C clef=F4
V:2
%%MIDI program 0
^A,,/2-|^A,,7/16
Q:1/4=53
L:1/8
M:1/16
K:C clef=F4
V:1
%%MIDI program 0
[^G,-^A,-D]3/8[^G,-^A,-^D-]3/16|(3:2[^G,^A,^D]/4[^G,-^A,-F]3/8||[^G,-^A,-]128[^G,^A,]16
L:1/8
M:1/16
K:C clef=F4
V:2
%%MIDI program 0
[^A,,,-^A,,-]31/64|[^A,,,^A,,]7/16|
Q:1/4=26
L:1/8
M:1/16
K:C clef=F4
V:1
%%MIDI program 0
[G,-^A,-^D-]/2|[G,-^A,-^D-]/2|[G,-^A,-^D-]/2|[G,-^A,-^D-]/2|
[G,-^A,-^D-]/2|[G,-^A,-^D-]/2|[G,-^A,-^D-]/2|[G,-^A,-^D-]/2|
[G,-^A,-^D-]/2|[G,-^A,-^D-]/2|[G,-^A,-^D-]/2|[G,-^A,-^D-]/2|
[G,-^A,-^D-]/2|[G,^A,^D]/8z3/8
L:1/8
M:1/16
K:C clef=F4
V:2
%%MIDI program 0
[^D,,-^D,-]/2|[^D,,-^D,-]/2|[^D,,-^D,-]/2|[^D,,-^D,-]/2|
[^D,,-^D,-]/2|[^D,,-^D,-]/2|[^D,,-^D,-]/2|[^D,,-^D,-]/2|
[^D,,-^D,-]/2|[^D,,-^D,-]/2|[^D,,-^D,-]/2|[^D,,-^D,-]/2|
[^D,,-^D,-]/2|[^D,,^D,]/8z3/8
Q:1/4=53


